svg/Pictogram/pictogram-ghs-flame.svg

<?xml version="1.0" encoding="UTF-8" standalone="no"?>
<svg height="579pt" id="svg2" inkscape:output_extension="org.inkscape.output.svg.inkscape" inkscape:version="0.45.1" preserveAspectRatio="xMidYMid meet" sodipodi:docbase="/home/henning/gefahrstoffbeauftragter/ghs_pictograms" sodipodi:docname="flamme_drawing.svg" sodipodi:version="0.32" version="1.0" viewBox="0 0 579 579" width="579pt" xmlns="http://www.w3.org/2000/svg" xmlns:cc="http://web.resource.org/cc/" xmlns:dc="http://purl.org/dc/elements/1.1/" xmlns:inkscape="http://www.inkscape.org/namespaces/inkscape" xmlns:rdf="http://www.w3.org/1999/02/22-rdf-syntax-ns#" xmlns:sodipodi="http://sodipodi.sourceforge.net/DTD/sodipodi-0.dtd" xmlns:svg="http://www.w3.org/2000/svg">
  <metadata>
    <rdf:RDF xmlns:cc="http://web.resource.org/cc/" xmlns:dc="http://purl.org/dc/elements/1.1/" xmlns:rdf="http://www.w3.org/1999/02/22-rdf-syntax-ns#">
      <cc:Work rdf:about="">
        <dc:title></dc:title>
        <dc:description></dc:description>
        <dc:subject>
          <rdf:Bag>
            <rdf:li>unsorted</rdf:li>
          </rdf:Bag>
        </dc:subject>
        <dc:publisher>
          <cc:Agent rdf:about="http://www.openclipart.org/">
            <dc:title>Open Clip Art Library, Source: Wikimedia Commons, Source: Wikimedia Commons, Source: Wikimedia Commons</dc:title>
          </cc:Agent>
        </dc:publisher>
        <dc:creator>
          <cc:Agent>
            <dc:title></dc:title>
          </cc:Agent>
        </dc:creator>
        <dc:rights>
          <cc:Agent>
            <dc:title></dc:title>
          </cc:Agent>
        </dc:rights>
        <dc:date></dc:date>
        <dc:format>image/svg+xml</dc:format>
        <dc:type rdf:resource="http://purl.org/dc/dcmitype/StillImage"/>
        <cc:license rdf:resource="http://en.wikipedia.org/wiki/Public_domain"/>
        <dc:language>en</dc:language>
      </cc:Work>
    </rdf:RDF>
  </metadata>
  <defs id="defs15"/>
  <sodipodi:namedview bordercolor="#666666" borderopacity="1.0" gridtolerance="10.0" guidetolerance="10.0" id="base" inkscape:current-layer="svg2" inkscape:cx="452.11233" inkscape:cy="213.64966" inkscape:pageopacity="0.0" inkscape:pageshadow="2" inkscape:window-height="978" inkscape:window-width="1280" inkscape:window-x="0" inkscape:window-y="0" inkscape:zoom="0.58110119" objecttolerance="10.0" pagecolor="#ffffff"/>
  <path d="M 147.65941,148.01233 L 6,289.67173 L 147.66886,431.34059 L 289.32827,573 L 431.01602,431.31224 L 572.70378,289.62449 L 431.06327,147.98398 C 353.16571,70.086424 289.40386,6.34347 289.37551,6.34347 C 289.34716,6.34347 225.57586,70.095873 147.65941,148.01233 z M 408.62189,170.42535 L 527.82103,289.62449 L 408.57465,408.87087 L 289.31882,528.1267 L 170.12913,408.87087 L 50.939444,289.61504 L 170.13858,170.41591 C 235.69574,104.85874 289.34716,51.22622 289.37551,51.22622 C 289.40386,51.22622 343.06473,104.86819 408.62189,170.42535 z " id="path8" style="fill:#ff0000;stroke:none"/>
  <path d="M 290.39671,377.9076 C 218.59225,372.16324 204.16653,369.68499 184.69954,268.83961 C 203.28426,286.64997 208.98343,293.27207 226.15415,294.96097 C 206.88474,263.33991 213.80777,230.31951 210.93559,214.04383 C 225.44265,223.63661 225.72046,238.92702 242.87861,247.26337 C 231.70903,225.8816 237.44136,211.51903 239.91667,195.42952 C 240.55493,191.28082 243.42711,186.81049 239.59754,175.32178 C 264.48175,175.94876 257.2233,213.35258 269.75292,223.36344 C 293.36861,173.89814 271.9477,154.96073 289.52907,121.38116 C 292.40125,140.52902 303.96555,161.50909 313.96503,182.8413 C 323.53896,203.26568 322.97034,211.59862 319.8889,229.49176 C 339.03676,224.7048 338.69519,209.45632 342.84389,179.13888 C 357.64891,198.49789 355.43211,223.56789 355.43211,223.56789 C 355.43211,223.56789 357.39415,242.12744 348.65307,256.4683 C 365.88614,250.72394 373.03979,230.81441 377.64662,226.52983 C 390.73099,253.33683 382.19081,285.77089 365.79888,302.05915 C 391.96762,298.54871 393.40122,287.06997 394.67774,281.32561 C 395.82019,348.42831 363.95391,378.96722 315.446,378.32896 C 353.95605,350.09181 340.2063,349.67488 355.43211,332.41897 C 339.79469,342.95029 330.17838,341.72613 324.43402,340.13047 C 347.01476,316.4581 341.92724,302.06648 341.46514,290.51807 C 333.48686,311.26159 331.52464,298.43482 314.90996,316.97104 C 315.86735,255.05963 295.79613,257.09354 290.15487,244.19921 C 294.6227,273.55926 274.02966,291.15125 282.12424,316.86882 C 256.59376,306.65663 264.50095,305.45193 255.46683,291.69238 C 252.91378,311.79763 246.97215,305.26158 268.79553,339.82381 C 234.32939,339.18555 234.73707,319.97149 235.47377,330.19752 C 249.51553,374.87585 290.39671,377.9076 290.39671,377.9076 z " id="path2161" sodipodi:nodetypes="cccccccccccccccccccccccccccc" style="fill:#000000;fill-opacity:1;fill-rule:evenodd;stroke:none;stroke-width:1px;stroke-linecap:butt;stroke-linejoin:miter;stroke-opacity:1"/>
  <path d="M 209.43697,403.95739 L 209.43697,412.74496 L 294.80869,412.74496 L 380.1804,412.74496 L 380.1615,403.97629 L 380.13316,395.21706 L 294.78979,395.18872 L 209.43697,395.16982 L 209.43697,403.95739 z " id="path12" style="fill:#000000;stroke:none"/>
</svg>

<svg height="723.75" viewBox="0 0 579 579" width="723.75" xmlns="http://www.w3.org/2000/svg"><path d="m147.66 148.01l-141.66 141.66 141.67 141.67 141.66 141.66 141.69-141.69 141.69-141.69-141.64-141.64c-77.898-77.898-141.66-141.64-141.69-141.64-.028 0-63.8 63.752-141.72 141.67m260.96 22.413l119.2 119.2-119.25 119.25-119.26 119.26-119.19-119.26-119.19-119.26 119.2-119.2c65.56-65.56 119.21-119.19 119.24-119.19.028 0 53.689 53.642 119.25 119.2" fill="#f00"/><path d="m290.4 377.91c-71.804-5.744-86.23-8.223-105.7-109.07 18.585 17.81 24.284 24.432 41.455 26.12-19.269-31.621-12.346-64.64-15.219-80.917 14.507 9.593 14.785 24.883 31.943 33.22-11.17-21.382-5.437-35.744-2.962-51.834.638-4.149 3.51-8.619-.319-20.11 24.884.627 17.626 38.03 30.16 48.04 23.616-49.47 2.195-68.4 19.776-101.98 2.872 19.15 14.436 40.13 24.436 61.46 9.574 20.424 9.01 28.757 5.924 46.65 19.15-4.787 18.806-20.04 22.955-50.35 14.805 19.359 12.588 44.43 12.588 44.43 0 0 1.962 18.56-6.779 32.9 17.233-5.744 24.387-25.654 28.994-29.938 13.08 26.807 4.544 59.24-11.848 75.53 26.17-3.51 27.602-14.989 28.879-20.734 1.142 67.1-30.724 97.64-79.23 97 38.51-28.24 24.76-28.654 39.986-45.91-15.637 10.531-25.25 9.307-30.998 7.712 22.581-23.672 17.493-38.06 17.03-49.612-7.978 20.744-9.941 7.917-26.555 26.453.957-61.911-19.11-59.877-24.755-72.77 4.468 29.36-16.13 46.952-8.03 72.67-25.53-10.212-17.623-11.417-26.657-25.18-2.553 20.11-8.495 13.569 13.329 48.13-34.466-.638-34.06-19.852-33.32-9.626 14.04 44.678 54.923 47.71 54.923 47.71" fill-rule="evenodd"/><path d="m209.44 403.96v8.788h85.37 85.37l-.019-8.769-.028-8.759-85.34-.028-85.35-.019v8.788"/></svg>
